static/logos/tandem-wordmark-color.svg

<svg width="100" height="24" viewBox="0 0 100 24" fill="none" xmlns="http://www.w3.org/2000/svg">
<g clip-path="url(#clip0_1_817)">
<path d="M40.0751 14.3623C40.0751 14.7587 39.9607 15.0972 39.7351 15.368C39.509 15.6393 39.2058 15.771 38.8081 15.771C38.3567 15.771 38.0091 15.6293 37.7746 15.3501C37.5374 15.0678 37.4171 14.6221 37.4171 14.0255V10.8625H41.2094V9.14313H37.4171V5.81213L35.4675 7.08528V9.14313H33.6953V10.8625H35.4675V14.114C35.4675 15.2125 35.7654 16.0796 36.3532 16.6911C36.9411 17.3035 37.7671 17.6141 38.8081 17.6141C39.4664 17.6141 40.0407 17.468 40.5151 17.1799C40.9892 16.8918 41.3604 16.496 41.6187 16.0037C41.8764 15.5124 42.0069 14.9601 42.0069 14.3623H40.0751Z" fill="#364372"/>
<path d="M48.8877 15.0056C48.5283 15.3072 48.1518 15.5395 47.7699 15.6957C47.3892 15.8515 47.0155 15.9303 46.6594 15.9303C46.2381 15.9303 45.908 15.8393 45.6784 15.6601C45.4501 15.4819 45.339 15.2544 45.339 14.9646C45.339 14.64 45.4639 14.3927 45.7208 14.2089C45.9802 14.0225 46.3793 13.9281 46.9076 13.9281H49.3795V14.5243C49.2259 14.6989 49.0616 14.8595 48.8877 15.0056ZM49.6033 9.42469C49.0469 9.13208 48.3548 8.98358 47.5452 8.98358C46.8305 8.98358 46.1897 9.11071 45.6412 9.36142C45.0903 9.61273 44.6409 9.9711 44.3054 10.4266C43.9696 10.8825 43.7629 11.4231 43.6912 12.0333L45.6394 12.0518C45.7182 11.6223 45.9269 11.293 46.2594 11.0735C46.5957 10.8509 47.0284 10.7381 47.5452 10.7381C48.1288 10.7381 48.586 10.8846 48.9034 11.1739C49.219 11.4616 49.3795 11.8547 49.3795 12.3419V12.4393H46.8185C45.7228 12.4393 44.8574 12.6761 44.2469 13.1431C43.6305 13.6144 43.3242 14.2631 43.3363 15.0723C43.3482 15.6023 43.4922 16.064 43.7644 16.445C44.0359 16.825 44.4083 17.1183 44.8714 17.3165C45.3314 17.514 45.8435 17.614 46.3936 17.614C46.9431 17.614 47.4704 17.5019 47.9609 17.2806C48.449 17.0606 48.872 16.7793 49.2185 16.4448C49.2748 16.3904 49.3288 16.3356 49.3795 16.2804V17.4546H51.3288V12.4128C51.3288 11.7434 51.1802 11.1455 50.8863 10.6362C50.592 10.1262 50.1606 9.71855 49.6033 9.42469Z" fill="#364372"/>
<path d="M58.5988 8.9837C57.8818 8.9837 57.218 9.16861 56.626 9.53351C56.1762 9.81063 55.7955 10.207 55.4887 10.7159V9.14312H53.5391V17.4547H55.4887V14.256C55.4887 13.4999 55.5976 12.8581 55.8117 12.3483C56.0249 11.8425 56.3238 11.4583 56.7017 11.2063C57.08 10.9544 57.521 10.8268 58.0142 10.8268C58.6542 10.8268 59.1455 11.0107 59.474 11.3737C59.8048 11.7381 59.9723 12.2608 59.9723 12.9269V17.4547H61.9215V12.4483C61.9215 11.3254 61.611 10.4578 60.9988 9.86932C60.387 9.28168 59.5797 8.9837 58.5988 8.9837Z" fill="#364372"/>
<path d="M69.6777 15.4517C69.2927 15.6754 68.8352 15.7887 68.3176 15.7887C67.8339 15.7887 67.3869 15.6866 66.9901 15.4854C66.5953 15.285 66.2849 14.9919 66.0679 14.6146C65.8496 14.2365 65.7391 13.794 65.7391 13.299C65.7391 12.7926 65.8496 12.3468 66.0672 11.9744C66.2849 11.6029 66.5953 11.3131 66.9901 11.1126C67.3869 10.9112 67.8339 10.809 68.3176 10.809C68.8359 10.809 69.2927 10.9226 69.6777 11.1463C70.0614 11.3698 70.364 11.6692 70.5764 12.0363C70.7888 12.4034 70.896 12.8164 70.896 13.2636V13.3344C70.896 13.7702 70.7888 14.1802 70.5764 14.553C70.364 14.9257 70.0614 15.228 69.6777 15.4517ZM70.896 6.53473V10.3402C70.5849 9.94528 70.2084 9.63221 69.7725 9.40678C69.228 9.12613 68.596 8.98371 67.8921 8.98371C67.094 8.98371 66.3718 9.16227 65.7444 9.5143C65.1167 9.86711 64.6165 10.373 64.258 11.0182C63.9005 11.6627 63.7188 12.4301 63.7188 13.299C63.7188 14.156 63.9005 14.9174 64.258 15.5619C64.6165 16.2072 65.1167 16.7161 65.7437 17.0742C66.3705 17.4323 67.0934 17.6141 67.8921 17.6141C68.596 17.6141 69.232 17.4655 69.7823 17.1727C70.2117 16.944 70.5849 16.6314 70.896 16.2408V17.4546H72.8457V5.26257L70.9241 6.51651L70.896 6.53473Z" fill="#364372"/>
<path d="M99.2509 10.5497C98.981 10.0389 98.6032 9.64586 98.128 9.38135C97.6535 9.11763 97.1039 8.9837 96.4941 8.9837C95.7052 8.9837 94.9875 9.19573 94.3594 9.61436C93.9196 9.90789 93.5633 10.3364 93.2947 10.8933C93.1039 10.3961 92.8176 9.98991 92.4392 9.68011C91.8751 9.21808 91.1882 8.9837 90.398 8.9837C89.896 8.9837 89.4176 9.07148 88.9751 9.24501C88.5307 9.41926 88.1346 9.70534 87.7986 10.0952C87.6777 10.2357 87.5666 10.3929 87.4646 10.5667V9.14312H85.5156V17.4547H87.4646V14.256C87.4646 13.4987 87.5588 12.856 87.745 12.3455C87.928 11.8403 88.1954 11.4564 88.5378 11.2048C88.8803 10.9539 89.3032 10.8268 89.7954 10.8268C90.364 10.8268 90.8137 11.0104 91.1307 11.373C91.4496 11.7376 91.6117 12.2603 91.6117 12.9268V17.4547H93.5614V14.256C93.5614 13.4987 93.6555 12.856 93.8411 12.3455C94.0241 11.84 94.2914 11.4562 94.6346 11.2048C94.9764 10.9539 95.3999 10.8268 95.8914 10.8268C96.4607 10.8268 96.9097 11.0104 97.2267 11.373C97.5457 11.7376 97.7078 12.2603 97.7078 12.9268V17.4547H99.6575V12.4483C99.6575 11.6976 99.5209 11.0589 99.2509 10.5497Z" fill="#364372"/>
<path d="M77.0722 11.9636C77.2781 11.5738 77.5715 11.2628 77.9441 11.0396C78.3166 10.8161 78.7559 10.7028 79.25 10.7028C79.7441 10.7028 80.1722 10.8071 80.5212 11.0131C80.8702 11.2191 81.1421 11.5004 81.331 11.8487C81.4323 12.0363 81.5068 12.2397 81.5545 12.4571H76.8735C76.9238 12.2838 76.9898 12.1191 77.0722 11.9636ZM81.5925 14.76C81.5029 14.9245 81.3813 15.0887 81.2258 15.2494C81.0441 15.4372 80.797 15.5964 80.4938 15.7227C80.1898 15.8487 79.801 15.9127 79.3389 15.9127C78.8094 15.9127 78.3454 15.7994 77.9611 15.5757C77.5774 15.3523 77.2781 15.0387 77.0722 14.6438C76.9591 14.4271 76.8768 14.1936 76.8251 13.9459H83.6186V13.3698C83.6186 12.5602 83.4343 11.8138 83.0702 11.1514C82.7062 10.4891 82.1918 9.95638 81.5415 9.56847C80.8905 9.1805 80.1193 8.9837 79.25 8.9837C78.4284 8.9837 77.6702 9.17102 76.9957 9.54083C76.3219 9.91076 75.7748 10.4247 75.3696 11.0685C74.9637 11.7134 74.7578 12.4639 74.7578 13.299C74.7578 14.1575 74.9637 14.9199 75.3696 15.5647C75.7755 16.2095 76.3317 16.7176 77.0245 17.0754C77.7147 17.4329 78.499 17.6141 79.3565 17.6141C80.165 17.6141 80.8709 17.4843 81.4552 17.2278C82.0402 16.9713 82.5212 16.6198 82.8866 16.183C83.2408 15.7594 83.48 15.2802 83.6036 14.76H81.5925Z" fill="#364372"/>
<path d="M9.7651 16.9281L0 23.3018V6.3737L9.7651 0V16.9281Z" fill="#4341DC"/>
<path d="M25.5307 16.9281L15.7656 23.3018V6.3737L25.5307 0V16.9281Z" fill="#00B6B6"/>
</g>
<defs>
<clipPath id="clip0_1_817">
<rect width="100" height="23.5294" fill="white"/>
</clipPath>
</defs>
</svg>

<svg xmlns="http://www.w3.org/2000/svg" width="266.667" height="64" fill="none" viewBox="0 0 100 24"><g clip-path="url(#a)"><path fill="#364372" d="M40.075 14.362c0 .397-.114.735-.34 1.006-.226.271-.53.403-.927.403-.451 0-.799-.142-1.033-.42-.238-.283-.358-.729-.358-1.326v-3.162h3.792v-1.72h-3.792v-3.33l-1.95 1.272v2.058h-1.772v1.72h1.773v3.251c0 1.098.297 1.966.885 2.577.588.613 1.414.923 2.455.923.658 0 1.233-.146 1.707-.434a2.974 2.974 0 0 0 1.104-1.176 3.495 3.495 0 0 0 .388-1.642h-1.932ZM48.888 15.006c-.36.301-.736.534-1.118.69-.38.155-.755.234-1.11.234-.422 0-.752-.09-.982-.27a.833.833 0 0 1-.339-.695c0-.325.125-.572.382-.756.26-.186.658-.28 1.187-.28h2.471v.595a4.572 4.572 0 0 1-.491.482Zm.715-5.581c-.556-.293-1.248-.441-2.058-.441-.715 0-1.355.127-1.904.377-.55.252-1 .61-1.336 1.066a3.323 3.323 0 0 0-.614 1.606l1.948.019c.08-.43.288-.759.62-.979.337-.222.77-.335 1.286-.335.584 0 1.041.147 1.358.436.316.288.477.68.477 1.168v.097h-2.562c-1.095 0-1.96.237-2.571.704-.617.471-.923 1.12-.91 1.93.011.53.155.991.427 1.372.272.38.644.673 1.107.872.46.197.972.297 1.523.297.55 0 1.076-.112 1.567-.333a4.404 4.404 0 0 0 1.419-1v1.174h1.949v-5.042c0-.67-.149-1.268-.443-1.777a3.136 3.136 0 0 0-1.283-1.211ZM58.599 8.984c-.717 0-1.381.185-1.973.55-.45.277-.83.673-1.137 1.182V9.143h-1.95v8.312h1.95v-3.199c0-.756.109-1.398.323-1.908.213-.506.512-.89.89-1.142.378-.252.819-.38 1.312-.38.64 0 1.131.185 1.46.548.33.364.498.887.498 1.553v4.528h1.95v-5.007c0-1.123-.311-1.99-.923-2.579-.612-.587-1.42-.885-2.4-.885ZM69.678 15.452c-.385.223-.843.337-1.36.337-.484 0-.931-.102-1.328-.304a2.186 2.186 0 0 1-.922-.87 2.595 2.595 0 0 1-.329-1.316c0-.506.11-.952.328-1.325.218-.371.528-.66.923-.861a2.905 2.905 0 0 1 1.328-.304c.518 0 .975.114 1.36.337.383.224.686.523.898.89.213.367.32.78.32 1.228v.07a2.42 2.42 0 0 1-1.218 2.117Zm1.218-8.917v3.805a3.424 3.424 0 0 0-1.124-.933c-.544-.28-1.176-.423-1.88-.423-.798 0-1.52.178-2.148.53a3.828 3.828 0 0 0-1.486 1.504c-.357.645-.54 1.412-.54 2.281 0 .857.182 1.618.54 2.263a3.887 3.887 0 0 0 1.486 1.512c.627.358 1.35.54 2.148.54.704 0 1.34-.149 1.89-.441a3.55 3.55 0 0 0 1.114-.932v1.214h1.95V5.263l-1.922 1.254-.028.018ZM99.25 10.55a2.806 2.806 0 0 0-1.122-1.169c-.475-.263-1.024-.397-1.634-.397-.789 0-1.507.212-2.135.63-.44.294-.796.722-1.064 1.28a2.859 2.859 0 0 0-.856-1.214c-.564-.462-1.25-.696-2.041-.696-.502 0-.98.087-1.423.261-.444.174-.84.46-1.176.85-.121.14-.232.298-.334.472V9.143h-1.95v8.312h1.95v-3.199c0-.757.094-1.4.28-1.91.183-.506.45-.89.793-1.141.342-.251.765-.378 1.257-.378.569 0 1.019.183 1.336.546.319.365.48.887.48 1.554v4.528h1.95v-3.199c0-.757.094-1.4.28-1.91.183-.506.45-.89.794-1.141.341-.251.765-.378 1.256-.378.57 0 1.019.183 1.336.546.319.365.48.887.48 1.554v4.528h1.95v-5.007c0-.75-.136-1.39-.406-1.898ZM77.072 11.964c.206-.39.5-.701.872-.924.373-.224.812-.337 1.306-.337s.922.104 1.271.31c.35.206.621.487.81.836.101.187.176.39.224.608h-4.681c.05-.173.116-.338.198-.493Zm4.52 2.796c-.09.165-.21.329-.366.49a2.168 2.168 0 0 1-.732.473c-.304.126-.693.19-1.155.19-.53 0-.994-.114-1.378-.337a2.284 2.284 0 0 1-.889-.932 2.69 2.69 0 0 1-.247-.698h6.794v-.576c0-.81-.185-1.556-.549-2.219a4.145 4.145 0 0 0-1.528-1.583c-.651-.387-1.423-.584-2.292-.584-.822 0-1.58.187-2.254.557-.674.37-1.221.884-1.626 1.527-.406.645-.612 1.396-.612 2.231 0 .859.206 1.62.612 2.266a4.204 4.204 0 0 0 1.654 1.51c.69.358 1.475.54 2.332.54.809 0 1.515-.13 2.1-.387a3.854 3.854 0 0 0 1.43-1.045 3.44 3.44 0 0 0 .718-1.423h-2.011Z"/><path fill="#4341DC" d="M9.765 16.928 0 23.302V6.374L9.765 0v16.928Z"/><path fill="#00B6B6" d="m25.53 16.928-9.764 6.374V6.374L25.53 0v16.928Z"/></g><defs><clipPath id="a"><path fill="#fff" d="M0 0h100v23.529H0z"/></clipPath></defs></svg>
